X: 141004
T: APPLE PRAITIES
Q: "Slow."
%R: air
B: James Kerr "Merry Melodies" v.1 p.41 s.0 #4
Z: 2016 John Chambers <jc:trillian.mit.edu>
N: The ">" over the last note is tiny.
M: C
L: 1/8
%%slurgraces yes
%%graceslurs yes
K: Am
(uAB) |\
vc3vc B2A2 | (uBe3) (d2B2) | vA3vA B2c2 | d2B2 HG2(AB) |\
c3c B2A2 | (Be3) e2d2 | B2{cB}A2 .A2.A2 | "^>"A6 :|\
uA2 |\
A3B ^c2d2 | e4 (^f2^g2) | a3=g ^f2d2 | e2^c2 HA2A2 |
A3B ^c2d2 | e4 (^f2^g2) | a3=g ^f2d2 | e6 e2 |\
a3=g ^f2d2 | =g2^f2 e2d2 | =c2A2 =g2e2 | d2B2 HG2(uAB) |\
=c3c B2A2 | (Be3) e2d2 | B2{cB}A2 .A2.A2 | "^>"A6 |]

%%sep 1 1 500
%%sep 1 1 500

